X: 33
T: the French Assembly
%%VWML:Thompsons1774-3047-p17-0
F:http://www.vwml.org/record/Thompsons1774/3047/p17
M: 3/8
L: 1/16
Z: 2011 John Chambers <jc:trillian.mit.edu>
B: Charles & Samuel Thompson eds "Twenty Four Country Dances", London 1774, p.17 #1 
K: G
%-------------------------
|: c2cBcA | B2BABG | A2AFAF | G2D2D2 |\
c2cBcA | B2BABG | A2AFAF | G6 :|
|: G2g2g2 | G2g2g2 | agfedc | BcdBG2 |\
G2g2g2 | G2g2g2 | fafde^c | d6 |
c2cBcA | B2BABG | A2AFAF | G2D2D2 |\ c2cBcA | B2BABG | A2AFAF | G6 :|
% - - - - - - - - Dance description - - - - - - - -
%%begintext align
%% Allemand to the Right & cast off .|. Allemand to the Left
%% and cast up :|. hands 4 across quite round cross over & turn .|: 
%% hands 6 round back to back lead thro' the top & cast off :|: 
%%endtext
T: Cranford Lodge 
R: slip jig
M: 9/8
L: 1/8
Z: 2011 John Chambers <jc:trillian.mit.edu>
B: Charles & Samuel Thompson eds "Twenty Four Country Dances", London 1774, p.17 #2 
K: D
%-------------------------
g |\
f2d (ec)A (BG)g | f2d (ec)A (Bd)g |\
f2d (ec)A (BG)B | (ef)g (Be)d (cA) :|
|: g |\
(fg)a (fd)c (BG)g | (fg)a (ef)d (eA)g |\
(fg)a (fd)c (BG)B | (ef)g (Be)d (cA) :|
% - - - - - - - - Dance description - - - - - - - - %%begintext align
%% Cast off 2 Cu. .|. up again :|. cross %% over 1 Cu. & turn .|: Right and
%% Left :|:
%%endtext
